public/images/easy-to-customize.svg

<svg width="104" height="104" viewBox="0 0 104 104" fill="none" xmlns="http://www.w3.org/2000/svg">
<path d="M61.081 1.61318C61.8009 1.06858 62.8351 1.27652 63.2886 2.05706L67.8544 9.91551C68.2001 10.5106 68.9056 10.795 69.5674 10.6061L78.307 8.11184C79.1751 7.86409 80.0643 8.43156 80.2052 9.32322L81.6239 18.3004C81.7313 18.9801 82.2864 19.5002 82.9718 19.5632L92.0222 20.3944C92.9212 20.477 93.5453 21.3274 93.3546 22.2097L91.4346 31.0931C91.2892 31.7658 91.619 32.4513 92.2353 32.7576L100.374 36.8021C101.183 37.2038 101.458 38.2222 100.961 38.9761L95.9615 46.5661C95.5829 47.1408 95.6428 47.8992 96.1069 48.4074L102.235 55.1189C102.844 55.7855 102.732 56.8345 101.997 57.358L94.5933 62.6295C94.0327 63.0286 93.8145 63.7574 94.0637 64.3989L97.3537 72.8711C97.6805 73.7126 97.1975 74.6504 96.3227 74.8729L87.5147 77.1139C86.8477 77.2836 86.3811 77.8843 86.3816 78.5725L86.389 87.6611C86.3898 88.5638 85.6006 89.2638 84.7044 89.1553L75.6817 88.0631C74.9985 87.9804 74.3463 88.372 74.0982 89.014L70.822 97.4915C70.4965 98.3335 69.5078 98.7011 68.7114 98.2762L60.6925 93.9984C60.0853 93.6745 59.3357 93.8041 58.8725 94.313L52.755 101.035C52.1474 101.702 51.0926 101.688 50.5034 101.004L44.5714 94.1182C44.1222 93.5968 43.3764 93.4468 42.7606 93.7541L34.6281 97.8118C33.8204 98.2148 32.842 97.8204 32.5397 96.9698L29.4956 88.4062C29.2651 87.7578 28.6238 87.3485 27.9386 87.4126L18.8895 88.2585C17.9907 88.3425 17.2209 87.6213 17.2463 86.719L17.5013 77.634C17.5206 76.9461 17.0705 76.3328 16.4084 76.145L7.66475 73.6649C6.79629 73.4185 6.33902 72.468 6.68861 71.6357L10.2083 63.2563C10.4748 62.6218 10.2766 61.8874 9.72706 61.4731L2.46979 56.0019C1.74896 55.4585 1.66595 54.4069 2.29258 53.7571L8.60156 47.215C9.07928 46.7196 9.15979 45.9632 8.79702 45.3784L4.00624 37.655C3.53039 36.8879 3.83286 35.8773 4.65191 35.4978L12.8981 31.6765C13.5225 31.3872 13.8709 30.7109 13.7439 30.0345L12.0666 21.1021C11.9 20.2149 12.5471 19.3818 13.4479 19.3238L22.5177 18.7394C23.2045 18.6952 23.7736 18.1904 23.8995 17.5138L25.5623 8.57866C25.7274 7.69118 26.6317 7.14814 27.4927 7.41944L36.1611 10.1509C36.8175 10.3578 37.5305 10.0927 37.8923 9.50725L42.6706 1.77612C43.1452 1.00823 44.1846 0.828545 44.8894 1.39255L51.9857 7.07098C52.5231 7.50096 53.2837 7.51133 53.8326 7.09615L61.081 1.61318Z" fill="#E5F1FB"/>
<path d="M25.6432 46.5936L16.9958 43.338L19.1859 37.5207L20.7844 38.1224L19.2602 42.171L21.0159 42.832L22.1356 39.8578L23.6423 40.4251L22.5226 43.3993L24.7107 44.223L26.2941 40.0172L27.8926 40.619L25.6432 46.5936Z" fill="#5C92ED"/>
<path d="M32.0572 34.9755L30.7946 34.6235L28.4232 37.5671L29.0359 38.7259L27.7624 40.3067L23.0269 31.1884L23.4222 30.6978L33.3307 33.3946L32.0572 34.9755ZM29.1717 34.161L25.9675 33.1619L27.6259 36.0798L29.1717 34.161Z" fill="#5C92ED"/>
<path d="M33.4299 30.9508L33.9703 29.4134C35.0107 29.7969 35.8883 29.7507 36.6029 29.2747C36.9447 29.047 37.1635 28.7947 37.2594 28.5178C37.3501 28.2331 37.3075 27.9586 37.1316 27.6945C36.9867 27.477 36.8095 27.354 36.5998 27.3255C36.385 27.2891 36.0238 27.311 35.5165 27.391L34.4408 27.5692C32.8306 27.8456 31.7176 27.5215 31.1019 26.5972C30.6673 25.9447 30.5588 25.2599 30.7766 24.543C30.9891 23.8183 31.4644 23.2101 32.2023 22.7186C32.7771 22.3357 33.37 22.1314 33.9809 22.1058C34.5867 22.0724 35.1639 22.1982 35.7125 22.4831L35.1916 24.0244C34.4022 23.698 33.7162 23.7287 33.1336 24.1168C32.854 24.3031 32.6688 24.5217 32.5781 24.7728C32.4874 25.0239 32.5197 25.2659 32.6749 25.4989C32.8043 25.6931 32.9725 25.811 33.1796 25.8525C33.3892 25.881 33.7167 25.8592 34.162 25.7869L35.292 25.5893C36.1488 25.4447 36.8452 25.4462 37.381 25.594C37.9116 25.734 38.3476 26.0603 38.6891 26.573C39.1496 27.2643 39.2697 27.9918 39.0494 28.7553C38.8238 29.5111 38.3188 30.1503 37.5343 30.6729C36.8895 31.1023 36.206 31.3389 35.4838 31.3826C34.7693 31.4212 34.0847 31.2772 33.4299 30.9508Z" fill="#5C92ED"/>
<path d="M45.4734 17.4502L43.9642 23.7098L44.9687 27.2084L43.1521 27.73L42.1514 24.2448L37.5341 19.7297L39.5526 19.1502L42.5294 22.1117L43.4684 18.0259L45.4734 17.4502Z" fill="#5C92ED"/>
<path d="M56.5331 26.6296L58.0553 19.253L55.1622 18.656L55.5074 16.9833L63.1582 18.5621L62.813 20.2348L59.9063 19.635L58.3841 27.0116L56.5331 26.6296Z" fill="#5C92ED"/>
<path d="M63.7284 23.3799C64.3914 22.2429 65.3842 21.5171 66.7068 21.2023C68.0375 20.8924 69.2673 21.0938 70.3961 21.8063C71.5539 22.4709 72.307 23.4638 72.6553 24.7849C73.0116 26.1109 72.8423 27.3327 72.1474 28.4504C71.4844 29.5873 70.4836 30.3084 69.1449 30.6135C67.8143 30.9234 66.5845 30.722 65.4556 30.0095C64.2979 29.3449 63.5448 28.352 63.1965 27.0309C62.8561 25.7146 63.0334 24.4976 63.7284 23.3799ZM70.4804 27.4464C70.933 26.6948 71.0623 25.9283 70.8684 25.1469C70.6872 24.3623 70.2328 23.7509 69.5053 23.3127C68.7697 22.8697 68.0152 22.7476 67.2418 22.9463C66.4683 23.1451 65.8529 23.6243 65.3954 24.3839C64.9379 25.1434 64.8022 25.9115 64.9882 26.6881C65.1742 27.4648 65.6349 28.0746 66.3705 28.5176C67.0981 28.9558 67.8486 29.0755 68.622 28.8767C69.4035 28.6827 70.0229 28.2059 70.4804 27.4464Z" fill="#5C92ED"/>
<path d="M24.4471 68.0837C25.4714 67.2424 26.6576 66.9108 28.0057 67.0888C29.3611 67.261 30.447 67.8811 31.2634 68.949C31.8106 69.6348 32.145 70.383 32.2664 71.1935C32.401 72.0056 32.3155 72.7963 32.0099 73.5655L30.3314 73.0781C30.7278 71.9139 30.5825 70.9014 29.8956 70.0406C29.36 69.3694 28.6885 68.9918 27.881 68.9078C27.0794 68.831 26.3358 69.0662 25.65 69.6135C24.9643 70.1607 24.5735 70.8308 24.4778 71.6236C24.388 72.4237 24.6108 73.1594 25.1464 73.8305C25.8334 74.6913 26.7884 75.0576 28.0115 74.9294L28.1143 76.6743C27.3023 76.8089 26.5116 76.7234 25.7424 76.4178C24.9804 76.1064 24.3229 75.6042 23.7698 74.9111C22.9038 73.8708 22.5336 72.6736 22.6591 71.3197C22.7977 69.9672 23.3938 68.8885 24.4471 68.0837Z" fill="#5C92ED"/>
<path d="M32.047 77.5047L34.827 72.8543L36.4492 73.824L33.5974 78.5946C33.2574 79.1634 33.1518 79.7038 33.2807 80.2158C33.4144 80.7198 33.7415 81.1274 34.2623 81.4387C34.791 81.7548 35.305 81.85 35.8042 81.7243C36.3162 81.5954 36.7422 81.2466 37.0822 80.6778L39.934 75.9073L41.5563 76.877L38.7763 81.5274C38.1585 82.5609 37.3464 83.2008 36.34 83.4474C35.3336 83.6939 34.3417 83.525 33.3643 82.9408C32.379 82.3517 31.7566 81.5556 31.4973 80.5524C31.246 79.554 31.4292 78.5381 32.047 77.5047Z" fill="#5C92ED"/>
<path d="M41.2814 84.3431L42.7648 83.6683C43.2086 84.6845 43.8496 85.2856 44.6879 85.4715C45.0889 85.5604 45.4224 85.5436 45.6886 85.421C45.9568 85.2893 46.1253 85.0685 46.194 84.7587C46.2506 84.5036 46.2166 84.2905 46.092 84.1194C45.9694 83.9393 45.7036 83.6939 45.2945 83.3833L44.4211 82.7307C43.1066 81.7604 42.5697 80.7331 42.8102 79.6488C42.9799 78.8834 43.3988 78.331 44.0668 77.9915C44.7368 77.643 45.5047 77.5648 46.3703 77.7567C47.0446 77.9063 47.6025 78.1926 48.0441 78.6155C48.4876 79.0294 48.7966 79.5329 48.971 80.1261L47.4983 80.8176C47.1872 80.022 46.6899 79.5485 46.0065 79.3969C45.6785 79.3241 45.3925 79.342 45.1486 79.4504C44.9047 79.5588 44.7524 79.7497 44.6918 80.0231C44.6412 80.2509 44.6727 80.4538 44.7862 80.6319C44.9108 80.803 45.1533 81.0241 45.5138 81.2952L46.4389 81.9736C47.1366 82.4917 47.6176 82.9951 47.8821 83.484C48.1485 83.9637 48.215 84.5043 48.0817 85.1056C47.9018 85.9166 47.4602 86.507 46.7567 86.8768C46.0553 87.2375 45.2445 87.3157 44.3242 87.1116C43.5679 86.9439 42.9239 86.6146 42.3922 86.1239C41.8696 85.6351 41.4994 85.0415 41.2814 84.3431Z" fill="#5C92ED"/>
<path d="M53.0387 87.6542L52.5224 80.1399L49.5753 80.3424L49.4582 78.6384L57.2519 78.1029L57.369 79.8069L54.4079 80.0103L54.9243 87.5246L53.0387 87.6542Z" fill="#5C92ED"/>
<path d="M59.0888 82.6319C58.5469 81.4325 58.5313 80.2027 59.0418 78.9426C59.561 77.6788 60.4381 76.7937 61.6733 76.2872C62.8861 75.7293 64.1316 75.6915 65.41 76.1738C66.6968 76.6524 67.5941 77.4988 68.1017 78.7131C68.6436 79.9125 68.6506 81.146 68.1229 82.4135C67.6038 83.6773 66.7267 84.5625 65.4915 85.069C64.2787 85.6269 63.0332 85.6646 61.7548 85.1824C60.4851 84.6963 59.5964 83.8462 59.0888 82.6319ZM66.3171 79.4891C65.9673 78.6845 65.4178 78.1347 64.6687 77.8395C63.9244 77.5322 63.1628 77.5478 62.3839 77.8865C61.5964 78.2288 61.0594 78.7727 60.7729 79.5181C60.4863 80.2635 60.5198 81.0428 60.8734 81.856C61.2269 82.6691 61.774 83.2251 62.5146 83.5239C63.2551 83.8227 64.0191 83.8009 64.8066 83.4586C65.5855 83.1199 66.1182 82.5779 66.4048 81.8325C66.6999 81.0833 66.6706 80.3022 66.3171 79.4891Z" fill="#5C92ED"/>
<path d="M73.1027 67.7178L73.5299 67.274L80.3075 73.799L78.9966 75.1605L75.4465 71.7427L75.9325 75.4365L75.5053 75.8803L71.7956 75.5349L75.3458 78.9527L74.035 80.3143L67.2574 73.7894L67.6846 73.3456L73.9942 73.9981L73.1027 67.7178Z" fill="#5C92ED"/>
<path d="M82.9149 69.6014L74.7216 65.3296L75.5954 63.6537L83.7887 67.9255L82.9149 69.6014Z" fill="#5C92ED"/>
<path d="M84.7464 60.9333L85.8193 56.4109L87.4812 56.8051L85.7361 64.161L85.2458 64.0446L79.4772 57.9135L78.5465 61.8366L76.8846 61.4424L78.4875 54.6859L78.9779 54.8022L84.7464 60.9333Z" fill="#5C92ED"/>
<path d="M87.8571 51.1772L78.6556 52.0202L78.0885 45.8301L79.7894 45.6743L80.1841 49.9822L82.0523 49.8111L81.7623 46.6464L83.3656 46.4995L83.6555 49.6642L85.9838 49.4509L85.5738 44.9757L87.2747 44.8198L87.8571 51.1772Z" fill="#5C92ED"/>
<g clip-path="url(#clip0)">
<path d="M64.3638 61.3912L59.2325 56.26L61.7491 53.7434C61.9671 53.5254 62.0567 53.21 61.9858 52.9099C61.915 52.6097 61.6938 52.3677 61.4013 52.2702L46.302 47.2371C45.9824 47.1305 45.6298 47.2137 45.3915 47.4521C45.1532 47.6904 45.07 48.0428 45.1766 48.3626L50.2097 63.4619C50.3072 63.7544 50.5492 63.9756 50.8493 64.0465C51.1494 64.1175 51.4648 64.0278 51.6829 63.8097L54.1995 61.2931L59.3308 66.4244C59.5045 66.5981 59.7322 66.685 59.9599 66.685C60.1875 66.685 60.4153 66.5982 60.589 66.4244L64.3638 62.6495C64.7113 62.302 64.7113 61.7387 64.3638 61.3912ZM59.9598 64.5369L54.8285 59.4057C54.4811 59.0582 53.9177 59.0582 53.5703 59.4057L51.4425 61.5334L47.4274 49.488L59.4728 53.5032L57.3451 55.6309C56.9979 55.978 56.9976 56.5417 57.3451 56.8891L62.4764 62.0204L59.9598 64.5369Z" fill="#5C92ED"/>
<path d="M45.8214 43.4343C46.3127 43.4343 46.7111 43.0359 46.7111 42.5446V37.2061C46.7111 36.7148 46.3127 36.3164 45.8214 36.3164C45.33 36.3164 44.9316 36.7148 44.9316 37.2061V42.5446C44.9316 43.0359 45.33 43.4343 45.8214 43.4343Z" fill="#5C92ED"/>
<path d="M38.8997 39.7059C38.5523 39.3584 37.9889 39.3584 37.6415 39.7059C37.294 40.0534 37.294 40.6167 37.6415 40.9642L41.4163 44.739C41.7637 45.0865 42.3272 45.0865 42.6746 44.739C43.022 44.3916 43.022 43.8282 42.6746 43.4808L38.8997 39.7059Z" fill="#5C92ED"/>
<path d="M41.4173 51.0262L37.6424 54.8011C37.295 55.1486 37.295 55.7119 37.6424 56.0593C37.9899 56.4068 38.5533 56.4068 38.9007 56.0593L42.6756 52.2845C43.023 51.937 43.023 51.3737 42.6756 51.0262C42.3281 50.6788 41.7647 50.6788 41.4173 51.0262Z" fill="#5C92ED"/>
<path d="M50.2249 44.739L53.9998 40.9642C54.3472 40.6167 54.3472 40.0534 53.9998 39.7059C53.6524 39.3584 53.089 39.3584 52.7415 39.7059L48.9667 43.4808C48.6192 43.8282 48.6192 44.3916 48.9667 44.739C49.3141 45.0865 49.8775 45.0865 50.2249 44.739Z" fill="#5C92ED"/>
<path d="M41.3718 47.8819C41.3718 47.3906 40.9734 46.9922 40.4821 46.9922H35.1436C34.6523 46.9922 34.2539 47.3906 34.2539 47.8819C34.2539 48.3733 34.6523 48.7717 35.1436 48.7717H40.4821C40.9734 48.7717 41.3718 48.3733 41.3718 47.8819Z" fill="#5C92ED"/>
</g>
<defs>
<clipPath id="clip0">
<rect width="30.3696" height="30.3696" fill="white" transform="translate(34.2539 36.3164)"/>
</clipPath>
</defs>
</svg>

<svg width="104" height="104" fill="none" xmlns="http://www.w3.org/2000/svg"><path d="M61.081 1.613a1.504 1.504 0 012.208.444l4.565 7.859c.346.595 1.052.879 1.713.69l8.74-2.494a1.504 1.504 0 011.898 1.211l1.419 8.977c.107.68.662 1.2 1.348 1.263l9.05.831a1.504 1.504 0 011.333 1.816l-1.92 8.883a1.504 1.504 0 00.8 1.665l8.139 4.044a1.503 1.503 0 01.587 2.174l-5 7.59a1.504 1.504 0 00.146 1.841l6.128 6.712a1.504 1.504 0 01-.238 2.239l-7.404 5.272c-.56.399-.779 1.127-.53 1.769l3.29 8.472a1.504 1.504 0 01-1.03 2.002l-8.808 2.24c-.667.17-1.134.771-1.133 1.46l.007 9.088c0 .903-.788 1.603-1.685 1.494l-9.022-1.092a1.504 1.504 0 00-1.584.951l-3.276 8.478a1.504 1.504 0 01-2.11.784l-8.02-4.278a1.504 1.504 0 00-1.82.315l-6.117 6.722a1.504 1.504 0 01-2.252-.031l-5.932-6.886a1.504 1.504 0 00-1.81-.364l-8.133 4.058a1.504 1.504 0 01-2.088-.842l-3.044-8.564a1.504 1.504 0 00-1.557-.993l-9.05.846a1.504 1.504 0 01-1.643-1.54l.255-9.085a1.504 1.504 0 00-1.093-1.489l-8.743-2.48a1.504 1.504 0 01-.976-2.03l3.52-8.379a1.504 1.504 0 00-.482-1.783L2.47 56.002a1.504 1.504 0 01-.177-2.245l6.309-6.542a1.504 1.504 0 00.195-1.837l-4.79-7.723a1.504 1.504 0 01.645-2.157l8.246-3.821c.625-.29.973-.966.846-1.642l-1.677-8.933a1.504 1.504 0 011.38-1.778l9.07-.585a1.504 1.504 0 001.383-1.225l1.662-8.935a1.504 1.504 0 011.93-1.16l8.67 2.732a1.504 1.504 0 001.73-.644l4.779-7.73a1.504 1.504 0 012.218-.384l7.097 5.678c.537.43 1.298.44 1.847.025l7.248-5.483z" fill="#E5F1FB"/><path d="M25.643 46.594l-8.647-3.256 2.19-5.817 1.598.601-1.524 4.049 1.756.661 1.12-2.974 1.506.567-1.12 2.974 2.189.824 1.583-4.206 1.599.602-2.25 5.975zM32.057 34.975l-1.262-.352-2.372 2.944.613 1.159-1.274 1.58-4.735-9.118.395-.49 9.909 2.697-1.274 1.58zm-2.885-.814l-3.204-1 1.658 2.919 1.546-1.919zM33.43 30.95l.54-1.537c1.04.384 1.918.338 2.633-.138.342-.228.56-.48.656-.757a.918.918 0 00-.127-.823c-.145-.218-.322-.341-.532-.37-.215-.036-.576-.014-1.084.066l-1.075.178c-1.61.277-2.723-.047-3.34-.972-.434-.652-.542-1.337-.324-2.054.212-.725.687-1.333 1.425-1.824.575-.383 1.168-.588 1.779-.613a3.3 3.3 0 011.731.377l-.52 1.541c-.79-.326-1.476-.295-2.058.093-.28.186-.465.405-.556.656a.773.773 0 00.097.726c.13.194.297.312.505.354.21.028.537.006.982-.066l1.13-.198c.857-.144 1.553-.143 2.089.005.53.14.967.466 1.308.979.46.691.58 1.419.36 2.182-.225.756-.73 1.395-1.515 1.918a4.098 4.098 0 01-2.05.71 4.043 4.043 0 01-2.054-.432zM45.473 17.45l-1.509 6.26 1.005 3.498-1.817.522-1-3.485-4.618-4.515 2.019-.58 2.976 2.962.94-4.086 2.004-.576zM56.533 26.63l1.522-7.377-2.893-.597.345-1.673 7.651 1.58-.345 1.672-2.907-.6-1.522 7.377-1.85-.382zM63.728 23.38c.663-1.137 1.656-1.863 2.979-2.178 1.33-.31 2.56-.108 3.69.604 1.157.665 1.91 1.658 2.258 2.979.357 1.326.187 2.548-.508 3.665-.663 1.137-1.663 1.858-3.002 2.163-1.33.31-2.56.109-3.69-.604-1.157-.664-1.91-1.657-2.258-2.978-.34-1.316-.164-2.533.531-3.651zm6.752 4.066c.453-.751.582-1.518.388-2.3-.18-.784-.635-1.395-1.363-1.833-.735-.443-1.49-.565-2.263-.367-.774.2-1.39.678-1.847 1.438-.457.76-.593 1.527-.407 2.304.186.777.647 1.387 1.383 1.83.727.438 1.478.558 2.251.359.781-.194 1.4-.671 1.858-1.43zM24.447 68.084c1.024-.842 2.21-1.173 3.559-.995 1.355.172 2.441.792 3.257 1.86.548.686.882 1.434 1.003 2.245.135.812.05 1.602-.256 2.371l-1.679-.487c.397-1.164.252-2.177-.435-3.037-.536-.672-1.207-1.05-2.015-1.133-.802-.077-1.545.158-2.231.706-.686.547-1.076 1.217-1.172 2.01-.09.8.133 1.535.668 2.207.687.86 1.642 1.227 2.866 1.098l.102 1.745a4.373 4.373 0 01-2.372-.256c-.762-.312-1.42-.814-1.972-1.507-.866-1.04-1.236-2.237-1.11-3.591.138-1.353.734-2.431 1.787-3.236zM32.047 77.505l2.78-4.65 1.622.969-2.852 4.77c-.34.57-.445 1.11-.316 1.622.133.504.46.911.981 1.223.529.316 1.043.411 1.542.285.512-.129.938-.477 1.278-1.046l2.852-4.77 1.622.969-2.78 4.65c-.618 1.034-1.43 1.674-2.436 1.92-1.006.247-1.998.078-2.976-.506-.985-.59-1.607-1.385-1.867-2.389-.251-.998-.068-2.014.55-3.047zM41.281 84.343l1.484-.675c.444 1.016 1.085 1.618 1.923 1.803.4.09.734.073 1-.05a.917.917 0 00.506-.662c.057-.255.023-.469-.102-.64-.123-.18-.388-.425-.797-.736l-.874-.652c-1.314-.97-1.851-1.998-1.61-3.082.169-.766.588-1.318 1.256-1.657.67-.349 1.438-.427 2.303-.235.675.15 1.233.436 1.674.858a3.3 3.3 0 01.927 1.511l-1.473.692c-.31-.796-.808-1.27-1.491-1.421-.328-.073-.614-.055-.858.053a.773.773 0 00-.457.573c-.05.228-.02.43.094.609.125.171.367.392.728.663l.925.679c.698.518 1.179 1.021 1.443 1.51.267.48.333 1.02.2 1.622-.18.81-.622 1.401-1.325 1.77-.702.361-1.512.44-2.433.236a4.098 4.098 0 01-1.932-.988 4.044 4.044 0 01-1.11-1.78zM53.039 87.654l-.517-7.514-2.947.202-.117-1.704 7.794-.535.117 1.704-2.961.203.516 7.515-1.885.13zM59.089 82.632c-.542-1.2-.558-2.43-.047-3.69.519-1.263 1.396-2.148 2.631-2.655 1.213-.558 2.459-.596 3.737-.113 1.287.478 2.184 1.325 2.692 2.54.542 1.198.549 2.432.02 3.7-.518 1.263-1.395 2.148-2.63 2.655-1.213.558-2.459.596-3.737.113-1.27-.486-2.159-1.336-2.666-2.55zm7.228-3.143c-.35-.805-.9-1.354-1.648-1.65-.745-.307-1.506-.291-2.285.047-.788.343-1.325.887-1.611 1.632-.287.745-.253 1.525.1 2.338.354.813.901 1.37 1.642 1.668.74.299 1.504.277 2.292-.065.778-.34 1.311-.881 1.598-1.627.295-.749.266-1.53-.088-2.343zM73.103 67.718l.427-.444 6.778 6.525-1.311 1.361-3.55-3.417.486 3.694-.428.443-3.71-.345 3.55 3.418-1.31 1.361-6.778-6.525.428-.443 6.31.652-.892-6.28zM82.915 69.601l-8.193-4.271.873-1.676 8.194 4.271-.874 1.676zM84.746 60.933l1.073-4.522 1.662.394-1.745 7.356-.49-.116-5.769-6.132-.93 3.924-1.662-.395 1.602-6.756.49.116 5.77 6.131zM87.857 51.177l-9.201.843-.568-6.19 1.701-.156.395 4.308 1.868-.17-.29-3.166 1.604-.147.29 3.165 2.328-.213-.41-4.475 1.7-.156.583 6.357z" fill="#5C92ED"/><g clip-path="url(#clip0)" fill="#5C92ED"><path d="M64.364 61.391l-5.132-5.131 2.517-2.517a.89.89 0 00-.348-1.473l-15.099-5.033a.89.89 0 00-1.125 1.126l5.033 15.099a.89.89 0 001.473.348l2.517-2.517 5.13 5.131a.887.887 0 001.259 0l3.775-3.775a.89.89 0 000-1.258zm-4.404 3.146l-5.132-5.131a.89.89 0 00-1.258 0l-2.127 2.127-4.016-12.045 12.046 4.015-2.128 2.128a.89.89 0 000 1.258l5.131 5.131-2.516 2.517zM45.821 43.434a.89.89 0 00.89-.89v-5.338a.89.89 0 00-1.78 0v5.339c0 .49.399.89.89.89zM38.9 39.706a.89.89 0 10-1.258 1.258l3.774 3.775a.89.89 0 101.259-1.258L38.9 39.706zM41.417 51.026l-3.775 3.775a.89.89 0 001.259 1.258l3.775-3.774a.89.89 0 00-1.259-1.259zM50.225 44.739L54 40.964a.89.89 0 00-1.258-1.258l-3.775 3.775a.89.89 0 101.258 1.258zM41.372 47.882a.89.89 0 00-.89-.89h-5.338a.89.89 0 000 1.78h5.338a.89.89 0 00.89-.89z"/></g><defs><clipPath id="clip0"><path fill="#fff" transform="translate(34.254 36.316)" d="M0 0h30.37v30.37H0z"/></clipPath></defs></svg>
